X:75
T:Columbus
C:Roy Marshall
S:Maya Whitmont, Wedgwood Alehouse jam, 2014/12/02
Z:abc-transcription Josh Larios <hades@elsewhere.org>, 2014.12.07
M:2/4
L:1/8
K:D
"D"A,D FG | Ac de | fe dA |"G"B2 Bc | dc BA | "D"FA EA | BA FD | "A"E2 ED |
"D"A,D FG | Ac de | fe dA | "G"B3 c | dc BA | "A"FA EA | FA Bc |1 "D"d2 d2 :|2 "D"d2 de ||
|: "D"fe fg | a3 f | fe dA | "G"B3 A | "D"fe fg | a2 gf | "A"eA gf | eA ag |
"D"fe fg | a3 f | fe dA | "G"B3 c | dc BA | "A"FA EA | FA Bc |1 "D"dc de :|2 "D"d2 d2 |]